packages/foundations/assets/icons/functional/images/notification/question_mark_circle_16.svg

<svg width="16" height="16" viewBox="0 0 16 16" fill="none" xmlns="http://www.w3.org/2000/svg">
<g clip-path="url(#clip0_187_206)">
<path fill-rule="evenodd" clip-rule="evenodd" d="M8.0003 1.60001C11.5189 1.60001 14.4 4.46505 14.4 7.99585C14.4 11.5145 11.5355 14.4 7.99998 14.4C4.46326 14.4 1.59998 11.5132 1.59998 7.99625C1.59998 4.47329 4.47214 1.60001 8.0003 1.60001ZM7.99966 3.20001C5.35526 3.20001 3.20782 5.34337 3.20782 7.99585C3.20782 10.636 5.33854 12.8 7.99998 12.8C10.6626 12.8 12.7921 10.6346 12.7921 7.99625C12.7921 5.35177 10.6537 3.20001 7.99966 3.20001ZM7.70342 11.5981C8.15606 11.5981 8.4995 11.239 8.4995 10.8019C8.4995 10.3649 8.15606 10.0214 7.70342 10.0214C7.2507 10.0214 6.90726 10.3649 6.90726 10.8019C6.90726 11.239 7.2507 11.5981 7.70342 11.5981ZM6.90726 9.30345H8.4995V8.49169C8.4995 7.94737 9.90814 7.67193 9.90814 6.11921C9.90814 5.01057 9.03022 4.40193 7.89742 4.40193C7.17942 4.40193 6.39158 4.64729 6.05182 4.92201L6.59582 6.33393C6.93942 6.14353 7.3823 5.99417 7.7651 5.99417C8.21126 5.99417 8.32782 6.19705 8.32782 6.42241C8.32782 7.20897 6.90726 7.13705 6.90726 8.49169V9.30345Z" fill="#1A1C1F"/>
</g>
<defs>
<clipPath id="clip0_187_206">
<rect width="16" height="16" fill="white"/>
</clipPath>
</defs>
</svg>

<svg xmlns="http://www.w3.org/2000/svg" width="16" height="16" fill="none"><g clip-path="url(#a)"><path fill="#1A1C1F" fill-rule="evenodd" d="M8 1.6c3.519 0 6.4 2.865 6.4 6.396 0 3.518-2.864 6.404-6.4 6.404s-6.4-2.887-6.4-6.404C1.6 4.473 4.472 1.6 8 1.6m0 1.6a4.793 4.793 0 0 0-4.792 4.796c0 2.64 2.13 4.804 4.792 4.804s4.792-2.165 4.792-4.804A4.793 4.793 0 0 0 8 3.2m-.297 8.398a.79.79 0 0 0 .796-.796.777.777 0 0 0-.796-.78.777.777 0 0 0-.796.78.79.79 0 0 0 .796.796m-.796-2.295H8.5v-.811c0-.545 1.41-.82 1.41-2.373 0-1.108-.879-1.717-2.012-1.717-.718 0-1.505.245-1.845.52l.544 1.412c.343-.19.786-.34 1.17-.34.445 0 .562.203.562.428 0 .787-1.42.715-1.42 2.07z" clip-rule="evenodd"/></g><defs><clipPath id="a"><path fill="#fff" d="M0 0h16v16H0z"/></clipPath></defs></svg>
